X:1
T:Will Ye Go To Sheriffmuir?
M:6/8
L:1/4
K:G
 d d/2 d c/2| B/2 c d3/2| c3/2 c B/2| A/2 B c3/2| d e/2 d c/2| B c/2 d3/2|\
 G A/2 B G/2| A3/2 G3/2| B G/2 B G/2| B G/2 B3/2| c A/2 c A/2| c A/2 c3/2|\
 B G/2 B G/2| B G/2 B3/2| G A/2 B d/2| A3/2 G3/2|

